X:1
T:Swan Lake
T:P.I. Tchaikovsky
T:Scene From "Swan Lake"
L:1/8
M:4/4
K:D
V:1 treble nm="Piano" snm="Pno."
V:1
"Bm" f4"G" Bcde |"Bm" f3 d f3 d | f3 B"G" dBGd |"Bm" B4-"Em" Bedc |"Bm" f4"G" Bcde | %5
"Bm" f3 d f3 d | f3 B"G" dBGd |"Bm" B6 B,2 |"A" C2 D2"A7" E2 FG |"Fother" A3 G F2 GA | %10
"Em" B3 A"Em7" G2 AB |"Cother" c3 B"Fother" FD"Bm"CB, |"A" C2 D2"A7" E2 FG |"Fother" A3 G F2 GA | %14
"Em" B3 A"G7" G2 AB |"C" =c3 G E2 G^c |"Cother" c3 ^G"Fother" c3 F |"Bm" f4"G" Bcde | %18
"Bm" f3 d f3 d | f3 B"G" dBGd |"Bm" B4-"Em" Bedc |"Bm" f4"G" Bcde |"Bm" f3 d f3 d | f3 B"G" dBGd | %24
"Bm" B8 |] %25

